src/components/class-icon/images/Rogue.svg

<?xml version="1.0" encoding="UTF-8"?>
<svg width="82px" height="100px" viewBox="0 0 82 100" version="1.1" xmlns="http://www.w3.org/2000/svg" xmlns:xlink="http://www.w3.org/1999/xlink">
    <!-- Generator: Sketch 53.2 (72643) - https://sketchapp.com -->
    <title>ClassIcon/Rogue</title>
    <desc>Created with Sketch.</desc>
    <g id="ClassIcon/Rogue" stroke="none" stroke-width="1" fill="none" fill-rule="evenodd">
        <g transform="translate(-0.000000, 0.000000)" fill="#00040C" fill-rule="nonzero" id="Rogue">
            <path d="M39.4950495,0.267326733 C40.5135613,-0.073098763 41.6151516,-0.073098763 42.6336634,0.267326733 C42.8019802,1.86138614 42.9207921,3.45544554 43.039604,5.04950495 C43.2079208,6.03960396 41.8019802,6.40594059 41.6732673,7.30693069 C42.3168317,8.57425743 43.6534653,9.61386139 43.2871287,11.1980198 C44.7537413,11.2273889 46.2196537,11.1113099 47.6633663,10.8514851 C51.3267327,8.69306931 54.980198,6.52145215 58.6237624,4.33663366 C59.3765732,4.04610239 60.1664735,3.8627922 60.970297,3.79207921 C61.7920792,3.68316832 62.6930693,3.2970297 63.4455446,3.79207921 C66.2574257,4.95049505 69.1287129,5.94059406 71.970297,7.05940594 C74.9405941,7.97029703 77.9108911,8.77227723 80.8811881,9.65346535 C79.8950256,10.3449441 78.9464811,11.0885765 78.039604,11.8811881 C75.7029703,14.1584158 73.3465347,16.4158416 71.019802,18.6930693 C70.354509,19.1824552 69.572948,19.4896189 68.7524752,19.5841584 C67.029703,20.049505 65.2871287,20.4653465 63.5841584,20.970297 C59.980198,22.2970297 56.3861386,23.6435644 52.7920792,24.980198 C51.633507,25.3012664 50.3937557,25.1292778 49.3663366,24.5049505 C47.5247525,23.5148515 45.8019802,22.1485149 43.6930693,21.7722772 C43.6930693,22.6633663 43.8019802,23.5643564 43.7524752,24.4653465 C43.3663366,28.3465347 42.8613861,32.2178218 42.5247525,36.1089109 C43.4554455,36.039604 44.3762376,35.9108911 45.2970297,35.8217822 C47.0693069,35.6732673 48.6534653,34.7326733 50.3960396,34.4257426 C49.7835311,36.0484498 49.0453162,37.6208806 48.1881188,39.1287129 C47.5346535,38.5742574 47.049505,37.8415842 46.3564356,37.3366337 C45.5830259,37.2657857 44.8033927,37.3602867 44.0693069,37.6138614 C44.1881188,38.8217822 44.3168317,40.019802 44.4455446,41.2277228 C44.4455446,41.8514851 45.2178218,42.2178218 45.0990099,42.8910891 C44.8514851,44.6336634 45.009901,46.3960396 44.8712871,48.1485149 C44.4158416,61.9306931 43.8811881,75.7128713 43.3564356,89.4950495 C42.8316832,92.6930693 42.1980198,95.8712871 41.5544554,99.049505 C40.8415842,95.9009901 40.2178218,92.7227723 39.6336634,89.5445545 C39.0792079,77.4851485 38.5082508,65.4257426 37.9207921,53.3663366 C37.7821782,49.7722772 37.6831683,46.1683168 37.4158416,42.5940594 C38.4950495,41.1782178 38.1188119,39.2772277 38.4059406,37.6435644 C37.707299,37.4793791 36.9944023,37.383221 36.2772277,37.3564356 C35.4653465,37.8019802 34.990099,38.6534653 34.2970297,39.2475248 C33.4540282,37.7415687 32.7066754,36.1840325 32.0594059,34.5841584 C33.5841584,34.8217822 34.980198,35.5742574 36.4851485,35.8217822 C37.6336634,35.960396 38.7920792,36.0792079 39.950495,36.1386139 C39.6039604,32.3663366 39.0891089,28.7128713 38.6138614,24.960396 C38.524785,23.7673369 38.524785,22.5692967 38.6138614,21.3762376 C36.2756762,21.9592108 34.0641954,22.9659547 32.0891089,24.3465347 C30.7857719,25.200302 29.1327327,25.3165021 27.7227723,24.6534653 C24.3432343,23.3993399 20.9669967,22.1518152 17.5940594,20.9108911 C15.4851485,20.3168317 13.3663366,19.7722772 11.2475248,19.2277228 C10.2574257,18.990099 9.69306931,18.029703 8.94059406,17.4158416 C6.07920792,14.8514851 3.56435644,11.7920792 0.306930693,9.65346535 L5.94059406,8.03960396 C9.9009901,6.99009901 13.7227723,5.33663366 17.5841584,3.9009901 C18.4653465,3.24752475 19.5643564,3.67326733 20.5049505,3.82178218 C21.2724191,3.87330073 22.024025,4.06455759 22.7227723,4.38613861 C25.9405941,6.36633663 29.1683168,8.21782178 32.3960396,10.1485149 C33.0045602,10.6387176 33.7388866,10.9475464 34.5148515,11.039604 C36.009901,11.039604 37.4851485,11.1881188 38.980198,11.2376238 C38.9615538,10.6940802 38.9980439,10.1500464 39.0891089,9.61386139 C39.4455446,8.73267327 40.2475248,8.10891089 40.5841584,7.21782178 C40.2277228,6.37623762 38.970297,6.02970297 39.1287129,4.98019802 C39.2772277,3.41584158 39.3465347,1.83168317 39.5247525,0.267326733 M21.8910891,12.970297 C20.6237624,13.6138614 19.3069307,14.1386139 18.0693069,14.8316832 C21.039604,15.8712871 24.009901,16.8118812 26.980198,17.8019802 C27.9956413,18.0443287 29.0538636,18.0443287 30.0693069,17.8019802 C27.7227723,16.1881188 25.1980198,14.7227723 22.7722772,13.1485149 C22.5148515,12.980198 22.1881188,12.7722772 21.8811881,12.970297 M58.990099,12.8712871 C56.3762376,14.5346535 53.7227723,16.1287129 51.1485149,17.8217822 C52.2044588,18.0891636 53.3103927,18.0891636 54.3663366,17.8217822 C57.2772277,16.7722772 60.3069307,15.9306931 63.1485149,14.8514851 C61.7722772,14.1584158 60.3663366,13.5445545 58.990099,12.8712871"></path>
        </g>
    </g>
</svg>

<svg viewBox="0 0 82 100" xmlns="http://www.w3.org/2000/svg"><path d="M39.495.267a4.95 4.95 0 0 1 3.139 0c.168 1.594.287 3.188.406 4.783.168.99-1.238 1.356-1.367 2.257.644 1.267 1.98 2.307 1.614 3.891 1.467.03 2.933-.087 4.376-.347 3.664-2.158 7.317-4.33 10.96-6.514a8.614 8.614 0 0 1 2.347-.545c.822-.109 1.723-.495 2.476 0 2.811 1.158 5.683 2.149 8.524 3.267 2.97.911 5.94 1.713 8.911 2.594a33.842 33.842 0 0 0-2.841 2.228c-2.337 2.277-4.693 4.535-7.02 6.812a4.743 4.743 0 0 1-2.268.891c-1.722.466-3.465.881-5.168 1.386-3.604 1.327-7.198 2.674-10.792 4.01a4.356 4.356 0 0 1-3.426-.475c-1.841-.99-3.564-2.356-5.673-2.733 0 .891.109 1.792.06 2.693-.387 3.882-.892 7.753-1.228 11.644.93-.07 1.851-.198 2.772-.287 1.772-.149 3.356-1.09 5.099-1.396a33.337 33.337 0 0 1-2.208 4.703c-.653-.555-1.138-1.287-1.832-1.792a5.475 5.475 0 0 0-2.287.277c.12 1.208.248 2.406.377 3.614 0 .623.772.99.653 1.663-.248 1.743-.09 3.505-.228 5.258-.455 13.782-.99 27.564-1.515 41.346-.524 3.198-1.158 6.376-1.802 9.555-.712-3.149-1.336-6.327-1.92-9.505-.555-12.06-1.126-24.12-1.713-36.179-.139-3.594-.238-7.198-.505-10.772 1.079-1.416.703-3.317.99-4.95a11.119 11.119 0 0 0-2.129-.288c-.812.446-1.287 1.297-1.98 1.892a41.119 41.119 0 0 1-2.238-4.664c1.525.238 2.921.99 4.426 1.238 1.149.138 2.307.257 3.465.317-.346-3.773-.86-7.426-1.336-11.179a24.07 24.07 0 0 1 0-3.584 19.713 19.713 0 0 0-6.525 2.97 4.485 4.485 0 0 1-4.366.307c-3.38-1.254-6.756-2.501-10.129-3.742a285.202 285.202 0 0 0-6.346-1.683c-.99-.238-1.555-1.198-2.307-1.812C6.079 14.85 3.564 11.792.307 9.653L5.94 8.04C9.9 6.99 13.723 5.337 17.584 3.9c.881-.653 1.98-.228 2.921-.08.767.052 1.519.244 2.218.565 3.218 1.98 6.445 3.832 9.673 5.763.609.49 1.343.799 2.119.89 1.495 0 2.97.15 4.465.199a8.05 8.05 0 0 1 .11-1.624c.356-.881 1.158-1.505 1.494-2.396-.356-.842-1.614-1.188-1.455-2.238.148-1.564.218-3.148.396-4.713M21.89 12.97c-1.267.644-2.584 1.169-3.822 1.862 2.97 1.04 5.94 1.98 8.911 2.97a6.653 6.653 0 0 0 3.09 0c-2.347-1.614-4.872-3.08-7.298-4.653-.257-.169-.584-.377-.89-.179m37.108-.099c-2.614 1.664-5.267 3.258-7.841 4.95a6.554 6.554 0 0 0 3.217 0c2.911-1.049 5.94-1.89 8.783-2.97-1.377-.693-2.783-1.306-4.159-1.98" fill="#00040C" fill-rule="nonzero"/></svg>
